public/rotating-arrow.svg

<?xml version="1.0" encoding="iso-8859-1"?>
<!-- Generator: Adobe Illustrator 16.0.0, SVG Export Plug-In . SVG Version: 6.00 Build 0)  -->
<!DOCTYPE svg PUBLIC "-//W3C//DTD SVG 1.1//EN" "http://www.w3.org/Graphics/SVG/1.1/DTD/svg11.dtd">
<svg version="1.1" id="Capa_1" xmlns="http://www.w3.org/2000/svg" xmlns:xlink="http://www.w3.org/1999/xlink" x="0px" y="0px"
	 width="513.109px" height="513.11px" viewBox="0 0 513.109 513.11" style="enable-background:new 0 0 513.109 513.11;"
	 xml:space="preserve">
<g>
	<path d="M446.004,94.564c-33.248-33.249-75.207-55.202-121.336-63.486c-45.041-8.089-90.929-2.688-132.696,15.613l22.446,51.225
		c65.826-28.843,141.209-14.639,192.039,36.194c67.525,67.525,67.525,177.397,0,244.922c-67.525,67.526-177.399,67.526-244.925,0
		c-34.179-34.18-51.897-79.672-50.794-126.175l67.115,18.972l-22.693-89.581l-22.694-89.583l-66.232,64.446L0,221.555l55.681,15.739
		c-1.95,23.192-0.377,46.666,4.771,69.614c9.485,42.284,30.763,80.898,61.535,111.671c43.274,43.273,100.81,67.105,162.007,67.105
		c0.004,0-0.002,0,0.002,0c61.193,0,118.736-23.835,162.01-67.105c43.273-43.274,67.104-100.811,67.104-162.01
		C513.109,195.374,489.277,137.837,446.004,94.564z"/>
</g>
<g>
</g>
<g>
</g>
<g>
</g>
<g>
</g>
<g>
</g>
<g>
</g>
<g>
</g>
<g>
</g>
<g>
</g>
<g>
</g>
<g>
</g>
<g>
</g>
<g>
</g>
<g>
</g>
<g>
</g>
</svg>

<?xml version="1.0" encoding="UTF-8" standalone="no"?>
<!-- Generator: Adobe Illustrator 16.0.0, SVG Export Plug-In . SVG Version: 6.00 Build 0)  -->

<svg
   version="1.1"
   id="Capa_1"
   x="0px"
   y="0px"
   width="150.08035mm"
   height="135.28792mm"
   viewBox="0 0 567.23284 511.32445"
   xml:space="preserve"
   sodipodi:docname="rotating-arrow.svg"
   inkscape:version="1.1 (ce6663b3b7, 2021-05-25)"
   xmlns:inkscape="http://www.inkscape.org/namespaces/inkscape"
   xmlns:sodipodi="http://sodipodi.sourceforge.net/DTD/sodipodi-0.dtd"
   xmlns="http://www.w3.org/2000/svg"
   xmlns:svg="http://www.w3.org/2000/svg"><defs
   id="defs3874" /><sodipodi:namedview
   id="namedview3872"
   pagecolor="#ffffff"
   bordercolor="#666666"
   borderopacity="1.0"
   inkscape:pageshadow="2"
   inkscape:pageopacity="0.0"
   inkscape:pagecheckerboard="0"
   showgrid="false"
   units="mm"
   fit-margin-right="14.32"
   fit-margin-top="7.02"
   fit-margin-left="0"
   fit-margin-bottom="7.02"
   inkscape:zoom="0.51840737"
   inkscape:cx="461.99189"
   inkscape:cy="213.15283"
   inkscape:window-width="1366"
   inkscape:window-height="704"
   inkscape:window-x="0"
   inkscape:window-y="27"
   inkscape:window-maximized="1"
   inkscape:current-layer="Capa_1"
   inkscape:document-units="mm" />
<g
   id="g3839"
   transform="translate(0,-0.89185619)">
	<path
   d="M 446.004,94.564 C 412.756,61.315 370.797,39.362 324.668,31.078 279.627,22.989 233.739,28.39 191.972,46.691 l 22.446,51.225 c 65.826,-28.843 141.209,-14.639 192.039,36.194 67.525,67.525 67.525,177.397 0,244.922 -67.525,67.526 -177.399,67.526 -244.925,0 -34.179,-34.18 -51.897,-79.672 -50.794,-126.175 L 177.853,271.829 155.16,182.248 132.466,92.665 66.234,157.111 0,221.555 55.681,237.294 c -1.95,23.192 -0.377,46.666 4.771,69.614 9.485,42.284 30.763,80.898 61.535,111.671 43.274,43.273 100.81,67.105 162.007,67.105 0.004,0 -0.002,0 0.002,0 61.193,0 118.736,-23.835 162.01,-67.105 43.273,-43.274 67.104,-100.811 67.104,-162.01 -10e-4,-61.195 -23.833,-118.732 -67.106,-162.005 z"
   id="path3837" />
</g>
<g
   id="g3841"
   transform="translate(0,-0.89185619)">
</g>
<g
   id="g3843"
   transform="translate(0,-0.89185619)">
</g>
<g
   id="g3845"
   transform="translate(0,-0.89185619)">
</g>
<g
   id="g3847"
   transform="translate(0,-0.89185619)">
</g>
<g
   id="g3849"
   transform="translate(0,-0.89185619)">
</g>
<g
   id="g3851"
   transform="translate(0,-0.89185619)">
</g>
<g
   id="g3853"
   transform="translate(0,-0.89185619)">
</g>
<g
   id="g3855"
   transform="translate(0,-0.89185619)">
</g>
<g
   id="g3857"
   transform="translate(0,-0.89185619)">
</g>
<g
   id="g3859"
   transform="translate(0,-0.89185619)">
</g>
<g
   id="g3861"
   transform="translate(0,-0.89185619)">
</g>
<g
   id="g3863"
   transform="translate(0,-0.89185619)">
</g>
<g
   id="g3865"
   transform="translate(0,-0.89185619)">
</g>
<g
   id="g3867"
   transform="translate(0,-0.89185619)">
</g>
<g
   id="g3869"
   transform="translate(0,-0.89185619)">
</g>
</svg>
